app/images/college.svg

<svg xmlns="http://www.w3.org/2000/svg" viewBox="316.5 476.1 339.9 339.4" enable-background="new 316.5 476.1 339.9 339.4"><g fill="#AC92EC"><path d="M655.8 574.2c-4.4 3.9-9.7 3.4-15 3.4H331.5c-5.3 0-10.6.6-15-3.4v-8c51-27.4 102.1-54.8 153-82.4 4-2.2 9.2-2.8 11.4-7.8h10.6c2.4 4.8 7.5 5.7 11.6 7.9 50.9 27.5 101.8 54.8 152.8 82.2-.1 2.8-.1 5.5-.1 8.1zm-35.9-10.9c-44.6-24.1-85.7-46-126.5-68.4-6.1-3.4-10.5-2.1-15.8.8-37.9 20.6-75.9 40.9-113.9 61.5-2.7 1.5-6.9 1.6-7.5 6.1h263.7zM316.5 804.8c5.1-2.8 10.6-3.5 16.4-3.5 101.9.1 203.7.1 305.6 0 6.8 0 12.9.4 17.3 6.2 2.4 9.1-3.5 8-9.3 8-110-.1-220-.1-330-.1v-10.6zM510.6 762h-49.7V591.5c16.3-3.7 32.5-.4 49.7-1.2V762zm-34.3-155.6v142.4c7.4-.4 13.8 1.2 19.7-.9V606.5c-7-.1-13.1-.1-19.7-.1zM596.1 762.3h-49.4V591c16.3-2.1 32.6-2.9 49.4.2v171.1zm-15-13.9V605.1c-7.2-.9-13.6-1.5-20.1.5v142.8h20.1zM426 590.9v171h-49.6v-171H426zm-14.8 157.5V605.2h-20.1v143.2h20.1zM486.1 786.6c-41.1 0-82.2.1-123.3-.1-5.8 0-14.1 2.2-14-7.2.1-8.3 7.8-6.6 13.3-6.6 82.2-.1 164.3-.1 246.5 0 5.7 0 14.5-2.5 14.6 6.6.1 10.2-9.3 7.2-15.3 7.2-40.5.2-81.1.1-121.8.1z"/></g></svg>

<?xml version="1.0" encoding="utf-8"?>
<!-- Generator: Adobe Illustrator 18.1.1, SVG Export Plug-In . SVG Version: 6.00 Build 0)  -->
<svg version="1.1" id="Layer_1" xmlns="http://www.w3.org/2000/svg" xmlns:xlink="http://www.w3.org/1999/xlink" x="0px" y="0px"
	 viewBox="316.5 476.1 339.9 339.4" enable-background="new 316.5 476.1 339.9 339.4" xml:space="preserve">
<g>
	<path fill="#AC92EC" d="M655.8,574.2c-4.4,3.9-9.7,3.4-15,3.4c-103.1,0-206.2,0-309.3,0c-5.3,0-10.6,0.6-15-3.4c0-2.7,0-5.3,0-8
		c51-27.4,102.1-54.8,153-82.4c4-2.2,9.2-2.8,11.4-7.8c3.5,0,7.1,0,10.6,0c2.4,4.8,7.5,5.7,11.6,7.9
		c50.9,27.5,101.8,54.8,152.8,82.2C655.8,568.9,655.8,571.6,655.8,574.2z M619.9,563.3c-44.6-24.1-85.7-46-126.5-68.4
		c-6.1-3.4-10.5-2.1-15.8,0.8c-37.9,20.6-75.9,40.9-113.9,61.5c-2.7,1.5-6.9,1.6-7.5,6.1C442.9,563.3,529.4,563.3,619.9,563.3z"/>
	<path fill="#AC92EC" d="M316.5,804.8c5.1-2.8,10.6-3.5,16.4-3.5c101.9,0.1,203.7,0.1,305.6,0c6.8,0,12.9,0.4,17.3,6.2
		c2.4,9.1-3.5,8-9.3,8c-110-0.1-220-0.1-330-0.1C316.5,811.9,316.5,808.4,316.5,804.8z"/>
	<path fill="#AC92EC" d="M510.6,762c-16.8,0-33,0-49.7,0c0-57.1,0-113.6,0-170.5c16.3-3.7,32.5-0.4,49.7-1.2
		C510.6,647.6,510.6,704.3,510.6,762z M476.3,606.4c0,48.2,0,95.1,0,142.4c7.4-0.4,13.8,1.2,19.7-0.9c0-47.7,0-94.6,0-141.4
		C489,606.4,482.9,606.4,476.3,606.4z"/>
	<path fill="#AC92EC" d="M596.1,762.3c-17.1,0-32.8,0-49.4,0c0-57.1,0-113.8,0-171.3c16.3-2.1,32.6-2.9,49.4,0.2
		C596.1,648.3,596.1,704.8,596.1,762.3z M581.1,748.4c0-48.4,0-95.7,0-143.3c-7.2-0.9-13.6-1.5-20.1,0.5c0,47.7,0,95,0,142.8
		C567.7,748.4,573.8,748.4,581.1,748.4z"/>
	<path fill="#AC92EC" d="M426,590.9c0,57.3,0,113.8,0,171c-16.4,0-32.6,0-49.6,0c0-56.8,0-113.5,0-171
		C392.4,590.9,408.5,590.9,426,590.9z M411.2,748.4c0-48.4,0-95.7,0-143.2c-7.2,0-13.5,0-20.1,0c0,48.1,0,95.4,0,143.2
		C398,748.4,404.1,748.4,411.2,748.4z"/>
	<path fill="#AC92EC" d="M486.1,786.6c-41.1,0-82.2,0.1-123.3-0.1c-5.8,0-14.1,2.2-14-7.2c0.1-8.3,7.8-6.6,13.3-6.6
		c82.2-0.1,164.3-0.1,246.5,0c5.7,0,14.5-2.5,14.6,6.6c0.1,10.2-9.3,7.2-15.3,7.2C567.4,786.7,526.8,786.6,486.1,786.6z"/>
</g>
</svg>
